!!!OTL: "Das Schlaraffenland" IN'S ELSIS ABE WOTT E FLOH
!!!ARE: Europa, Mitteleuropa, Schweiz; Elsass
!!!SCT: Z1332
!!!YEM: Copyright 1995, estate of Helmut Schaffrath.
**kern
*ICvox
*Ivox
!! Mixed meters:  2/4; 3/8
*M3/8
*k[f#c#g#]
*A:
{16cc#
16b
=1
8a
8a
8a
8e
=2
4a
4b
=3
4cc#
8r}
=4
{16cc#
16b
=5
*M2/4
8a
8a
8a
8e
=6
4a
4b
=7
*M3/8
4cc#
8r}
=8
{16a
16b
=9
*M2/4
8cc#
16cc#
16dd
8ee
16dd
16cc#
=10
4b
8e
8r
=11
8r}
{16cc#
16dd
8ee
8cc#
=12
*M3/8
4b
8b}
=13
{16cc#
16dd
=14
*M2/4
4ee
4cc#
=15
8dd
16ee
16dd
8cc#
8b
=16
*M3/8
4cc#
8r}
=17
{16cc#
16b
=18
*M2/4
8a
8b
8cc#
16dd#
16dd#
=19
*M3/8
8ee
8e
8r}
=20
{16a
16cc#
=21
8.ee
16ff#
16ee
16dd
=22
8.cc#
16b
8a
=23
4b
8cc#
=24
4a}
==
!!!AGN: Zech -, Schalks - Lied
!!!ONB: ESAC (Essen Associative Code) Database: ZUCCAL
!!!AMT: irregular
!!!AIN: vox
!!!EED: Helmut Schaffrath
!!!EEV: 1.0
*-
